X: 1
T:N°87
N:page 107
S:Manuscrit Wandembrile (1778), Archives de l'Etat à Namur
Z:ABC transcription Olivier VIENNE troubadourwallon@gmail.com
K:Dmaj
M:2/4
L:1/16
A2|F2Fd c2ce|d2f2 f4|e2dc d2cB|c4 A2A2|F2Fd c2ce|d2f2 f4|e2dc d2AE|F6:|
|:c2|d2df c2ce|d2df c2ce|d2cB d2cB|A4 A2c2|d2df c2ce|d2df c2ce|d2cB A2BG|F4:|]





